X:1
T:March Majestic
T:MARCH  MAJESTIC.
T:By  SCOTT  JOPLIN.
T:MARCH AND TWO-STEP.
T:Public Domain
T:Public Domain
T:Public Domain
T:Public Domain
C:Scott Joplin
Z:Public Domain
%%score { ( 1 3 ) | ( 2 4 ) }
L:1/8
Q:1/4=120
M:6/8
K:G
V:1 treble nm="Piano" snm="Pno."
V:3 treble 
V:2 bass 
V:4 bass 
V:1
"^Tempo di marcia." dAB c3 | dGA B3 |!<(! G2 ^A ^c2 [^CG=Ac]!<)! | !^![DFAd] z z [B,B][Cc][^C^c] |: %4
!f! [Dd]3 [^C^c]3 | [DGBd]z[dd'] [Bb][Aa][Gg] | [Ee]3 [_E_e]3 | [Dd]3 Bdg | %8
 [cdfb]z[cdfa] [cdfa]z[cdf^g] | [cdfa]3 cdf | [Bda]z[Bdg] [Bdg]z[Bda] | [Bdb]3 [B,B][Cc][^C^c] | %12
 [Dd]3 [^C^c]3 | [DGBd]z[dd'] [Bb][Aa][Gg] | [Ee]3 [_E_e]3 | [Dd]3 Bdg | [Bb]z[^A^a] [Bb]z[dd'] | %17
 [Aa]3 agf | [^cb]3 gfe |1 d2 z [B,B][Cc][^C^c] :|2 d2 [dd'] [dd'][^c^c'][dd'] |: %21
!f! [fc'f']2 [gc'g'] [ac'a']3 | [ec'e']2 [fc'f'] [gc'g']z[cac'] | [Bgb]2 [^Ag^a] [Bgb]3- | %24
 [Bgb]2 [Bb] [Aa]2 [Gg] |!<(! [Ff]2 [Gg] [Aa]2 [Bb]!<)! |!<(! [cc']2 [dd'] [ee']2 [ff']!<)! | %27
!ff! !>![gbg']3 !>![eg^ae']3 | !>![dgbd']z!>(![dd'] [dd'][^c^c']!>)![dd'] | %29
!f! [fc'f']2 [gc'g'] [ac'a']3 | [ec'e']2 [fc'f'] [gc'g']z[cc'] |!<(! [Bdgb]3 [Bdgb]3!<)! | %32
 !>![cegc']3 !>![eg^ae']3 | !>![dgbd']2!>(! [Bb] [Aa]2 [Gg]!>)! |!f! [Ff]3 [dd']3 |1 [Gg]6- | %36
 [Gg]z[dd'] [dd'][^c^c'][dd'] :|2 [Gg]6- | [Gg] z z [gbd'g'] z z |:[K:C]!p! [cec']3- [cec']^fg | %40
 a2 =f d2 g | [cec']3- [cec']^fg | a2 =f d2 g | [fbf']3- [fbf'][ee'][dd'] | [gc'g']3 [cgc']3 | %45
 [Bgb]3- [Bgb][cc'][Aa] | [Gg] z z !^![gbg'] z z | [cec']3- [cec']^fg | a2 =f d2 g | %49
 [cec']3- [cec']^fg | a2 =f d2 g | [fbf']3- [fbf'][ee'][dd'] | [cc']3- [cc'][Bb][Aa] | %53
 [Geg]3 [dfd']3 |1 [cc']2 [^F^f] [Gg][Aa][Bb] :|2 [cc']2 z!<(! z2 z!<)! |:!f! z6 | z6 | %58
 [Bd^g]3 [Bdg]3 | [Aca]2 z z2 z | z6 | z6 | [Ac^f]3 [Acf]3 | [GBg]2 z z2 z | [Bdf]3 [^GBd]3 | %65
 [Ac]3 [cea]3 | [eg_b]3 [^ceg]3 | [df]3 [dfd']3 | [c^da]3 [c^fa]3 | [cg] z z z2 z | %70
 [dfg]2 [df^g] [dfa]2 [df^a] | [dfb] z z !^![gbd'g'] z z | [cec']3- [cec']^fg | a2 =f d2 g | %74
 [cec']3- [cec']^fg | a2 =f d2 g | [fbf']3- [fbf'][ee'][dd'] | [gc'g']3 [cgc']3 | %78
 [Bgb]3- [Bgb][cc'][Aa] | [Gg] z z !^![gbg'] z z | [cec']3- [cec']^fg | a2 =f d2 g | %82
 [cec']3- [cec']^fg | a2 =f d2 g | [fbf']3- [fbf'][ee'][dd'] | [cc']3- [cc'][Bb][Aa] | %86
 [Geg]3 [dfd']3 |1 [cc']2 z z2 z :|2 [cc']2 z [cegc'] z !fermata!z!fine! |] %89
V:2
 DA,B, C3 | DG,A, B,3 | ^A,2 G, E,2 [_E,,_E,] | !^![D,,D,] z z [G,,G,][A,,A,][^A,,^A,] |: %4
 [B,,B,]3 [^A,,^A,]3 | [B,,B,]z[D,G,B,] G,,z[D,G,B,] | [C,C]3 [C,C]3 | [B,,B,]3 G,,z[D,G,B,] | %8
 A,,z[D,F,C] D,,z[D,F,C] | F,,z[D,F,C] D,,z[D,F,C] | G,,z[D,G,B,] D,,z[D,G,B,] | %11
 G,,z[D,G,B,] [G,,G,][A,,A,][^A,,^A,] | [B,,B,]3 [^A,,^A,]3 | [B,,B,]z[D,G,B,] G,,z[D,G,B,] | %14
 [C,C]3 [C,C]3 | [B,,B,]3 G,,z[D,G,B,] | ^G,,z[^E,B,D] [E,B,D]z[E,B,D] | %17
 A,,z[F,A,D] [F,A,D]z[F,A,D] | E,,z[G,A,^C] A,,z[G,A,C] |1 [D,F,A,D]2 z [G,,G,][A,,A,][^A,,^A,] :|2 %20
 [D,F,A,D]2 z z2 z |: A,,2 [D,F,C] D,,2 [D,F,C] | F,,2 [D,F,C] D,,z[D,F,C] | %23
 G,,2 [D,G,B,] D,,2 [D,G,B,] | G,,2 [D,G,B,] [D,G,B,]2 [D,G,B,] | A,,2 [D,F,C] D,,2 [D,F,C] | %26
 F,,2 [D,F,C] D,,2 [D,A,C] | !>!G,,2 [D,G,B,] [^C,G,^A,]2 [C,G,A,] | [D,G,B,] z z z2 z | %29
 A,,2 [D,F,C] D,,2 [D,F,C] | F,,2 [D,F,C] D,,z[D,F,C] | [G,,G,]2 [=F,,=F,] [E,,E,]2 [D,,D,] | %32
 [C,,C,]3 [^C,,^C,]3 | !>![D,,D,]2 [D,G,B,] [D,G,B,]2 [D,G,B,] | A,,2 [D,F,C] D,,2 [D,F,C] |1 %35
 B,6- | B, z z z2 z :|2 B,6- | G,, z z [G,,,G,,] z z |: %39
[K:C]!ped! [C,,C,]z[G,CE] G,,z[G,CE]!ped-up! |!ped! B,,2 [G,B,F] G,,2 [G,B,F]!ped-up! | %41
!ped! C,z[G,CE] G,,z[G,CE]!ped-up! |!ped! B,,2 [G,B,F] G,,2 [G,B,F]!ped-up! | %43
!ped! D,z[G,B,F] G,2 F,!ped-up! |!ped! E,2 [G,C] _E,2 [G,C]!ped-up! | %45
!ped! D,2 [G,B,] D,2 [^F,C]!ped-up! | [G,B,] z z !^![G,,,G,,] z z | %47
!ped! [C,,C,]z[G,CE] G,,z[G,CE]!ped-up! |!ped! B,,2 [G,B,F] G,,2 [G,B,F]!ped-up! | %49
!ped! C,z[G,CE] G,,z[G,CE]!ped-up! |!ped! B,,2 [G,B,F] G,,2 [G,B,F]!ped-up! | %51
!ped! G,,2 [G,B,F] ^G,,2 [B,DE]!ped-up! |!ped! A,,2 [A,CE] ^F,,2 [A,C^D]!ped-up! | %53
!ped! G,,z[G,CE] G,,z[G,B,F]!ped-up! |1 [CE]2 [^F,,^F,] [G,,G,][=F,,=F,][D,,D,] :|2 %55
 [CE]2 z [C,C]2 [B,,B,] |:"^sempre." [A,,A,]3- [A,,A,][B,,B,][C,C] | [E,,E,]2 z [E,,E,]2 [E,,E,] | %58
 [F,,F,]3 [E,,E,]3 | [A,,A,]2 z [B,,B,]2 [A,,A,] | [G,,G,]3- [G,,G,][A,,A,][B,,B,] | %61
 [D,,D,]2 z [D,,D,]2 [D,,D,] | [_E,,_E,]3 [D,,D,]3 | [G,,G,]2 z G,,2 G,, | ^G,,B,,D, F,3 | %65
 E,C,B,, A,,B,,C, | ^C,E,G, _B,3 | A,F,E, D,E,F, | ^F,A,C ^D3 | ECG, E,2 [G,,G,] | %70
 [B,,B,]2 [_B,,_B,] [A,,A,]2 [_A,,_A,] | [G,,G,] z z !^![G,,,G,,] z z | %72
!ped! [C,,C,]z[G,CE] G,,z[G,CE]!ped-up! |!ped! B,,2 [G,B,F] G,,2 [G,B,F]!ped-up! | %74
!ped! C,z[G,CE] G,,z[G,CE]!ped-up! |!ped! B,,2 [G,B,F] G,,2 [G,B,F]!ped-up! | %76
!ped! D,z[G,B,F] G,2 F,!ped-up! |!ped! E,2 [G,C] _E,2 [G,C]!ped-up! | %78
!ped! D,2 [G,B,] D,2 [^F,C]!ped-up! | [G,B,] z z !^![G,,,G,,] z z | %80
!ped! [C,,C,]z[G,CE] G,,z[G,CE]!ped-up! |!ped! B,,2 [G,B,F] G,,2 [G,B,F]!ped-up! | %82
!ped! C,z[G,CE] G,,z[G,CE]!ped-up! |!ped! B,,2 [G,B,F] G,,2 [G,B,F]!ped-up! | %84
!ped! G,,2 [G,B,F] ^G,,2 [B,DE]!ped-up! |!ped! A,,z[A,CE] ^F,,z[A,C^D]!ped-up! | %86
!ped! G,,z[G,CE] G,,z[G,B,F]!ped-up! |1 [CE]2 z [C,C]2 [B,,B,] :|2 [CE]2 z [C,,C,] z z |] %89
V:3
 x6 | x6 | x6 | x6 |: z2 [GB] z2 [G^A] | x6 | z2 [Gc] z2 [Gc] | z2 [GB] x3 | x6 | x6 | x6 | x6 | %12
 z2 [GB] z2 [G^A] | x6 | z2 [Gc] z2 [Gc] | z2 [GB] x3 | x6 | x6 | x6 |1 x6 :|2 x6 |: x6 | x6 | x6 | %24
 x6 | x6 | x6 | x6 | x6 | x6 | x6 | x6 | x6 | x6 | x6 |1 x6 | x6 :|2 x6 | x6 |:[K:C] x6 | x6 | x6 | %42
 x6 | x6 | x6 | x6 | x6 | x6 | x6 | x6 | x6 | x6 | x6 | x6 |1 x6 :|2 x6 |: x6 | x6 | x6 | x6 | x6 | %61
 x6 | x6 | x6 | x6 | x6 | x6 | x6 | x6 | x6 | x6 | x6 | x6 | x6 | x6 | x6 | x6 | x6 | x6 | x6 | %80
 x6 | x6 | x6 | x6 | x6 | x6 | x6 |1 x6 :|2 x6 |] %89
V:4
 x6 | x6 | x6 | x6 |: x6 | x6 | x6 | x6 | x6 | x6 | x6 | x6 | x6 | x6 | x6 | x6 | x6 | x6 | x6 |1 %19
 x6 :|2 x6 |: x6 | x6 | x6 | x6 | x6 | x6 | x6 | x6 | x6 | x6 | x6 | x6 | x6 | x6 |1 %35
 G,B,,E, ^C,D,B,, | G,, x x x2 x :|2 G,B,,E, ^C,D,B,, | B, x x x x x |:[K:C] x6 | x6 | x6 | x6 | %43
 x6 | x6 | x6 | x6 | x6 | x6 | x6 | x6 | x6 | x6 | x6 |1 x6 :|2 x6 |: x6 | x6 | x6 | x6 | x6 | x6 | %62
 x6 | x6 | x6 | x6 | x6 | x6 | x6 | x6 | x6 | x6 | x6 | x6 | x6 | x6 | x6 | x6 | x6 | x6 | x6 | %81
 x6 | x6 | x6 | x6 | x6 | x6 |1 x6 :|2 x6 |] %89

